T: Barren Rocks Of Aden, The
M: 2/4
L: 1/8
K: Dmaj
|:f/g/|a/f/d/A/ A/f/d/f/|a/f/d/A/ A/f/d/f/|a/f/d/A/ A/f/d/f/|a/f/d/A/ A/f/d/f/|g/e/c/A/ A/e/c/e/|d2 d:|
